X: 279
T:Dying Year, The
M:4/4
L:1/8
Z:https://nigelgatherer.com/
K:G
B/A/ | G3 B d2 B2 | g3 d/c/ B2 G2 | C3 e e2 C2 | f3 d {cd} e2 f2 | g3 d B2 G2 |
e3 c A2 F2 | D3 c B2 A2 | B3 G/F/ G3 :| g/a/ | b3 g d'3 c'/b/ | a2 f2 d3 ^d |
e2 c2 g3 f/e/ | d2 B2 G3 A/B/ | c3 d e2 c2 | B3 c d2 B2 | A3 B {AG} A2 G2 |
F2 D2 E2 F2 | G3 b b3 c'/d'/ | a2 f2 d3 ^d | e2 c2 g3 f/e/ | d2 B2 G3 d |
e3 f {ef} g2 e2|d2B2 G3 A/B/ | A2 F2 D3 c | B3 G/F/ G4 |]

